common/src/main/resources/files/plugins/datagrip/documentDBFileType.svg

<!--
  - The MIT License (MIT)
  -
  - Copyright (c) 2015-2024 Elior "Mallowigi" Boukhobza
  -
  - Permission is hereby granted, free of charge, to any person obtaining a copy
  - of this software and associated documentation files (the "Software"), to deal
  - in the Software without restriction, including without limitation the rights
  - to use, copy, modify, merge, publish, distribute, sublicense, and/or sell
  - copies of the Software, and to permit persons to whom the Software is
  - furnished to do so, subject to the following conditions:
  -
  - The above copyright notice and this permission notice shall be included in all
  - copies or substantial portions of the Software.
  -
  - THE SOFTWARE IS PROVIDED "AS IS", WITHOUT WARRANTY OF ANY KIND, EXPRESS OR
  - IMPLIED, INCLUDING BUT NOT LIMITED TO THE WARRANTIES OF MERCHANTABILITY,
  - FITNESS FOR A PARTICULAR PURPOSE AND NONINFRINGEMENT. IN NO EVENT SHALL THE
  - AUTHORS OR COPYRIGHT HOLDERS BE LIABLE FOR ANY CLAIM, DAMAGES OR OTHER
  - LIABILITY, WHETHER IN AN ACTION OF CONTRACT, TORT OR OTHERWISE, ARISING FROM,
  - OUT OF OR IN CONNECTION WITH THE SOFTWARE OR THE USE OR OTHER DEALINGS IN THE
  - SOFTWARE.
  -->
<svg data-big="true" width="16px" height="16px" viewBox="0 0 16 16" fill="none" xmlns="http://www.w3.org/2000/svg">
  <g fill="#548AF7">
    <path
      d="M2.34068 2.35189C2.07351 2.5871 2 2.77963 2 2.91793C2 3.06051 2.0778 3.26563 2.35025 3.51826C2.61988 3.76828 3.03652 4.02119 3.59025 4.24673C4.69452 4.69651 6.25166 5 7.99262 5C9.73359 5 11.2907 4.69651 12.395 4.24673C12.9487 4.02119 13.3654 3.76828 13.635 3.51826C13.9074 3.26563 13.9852 3.06051 13.9852 2.91793C13.9852 2.77963 13.9117 2.5871 13.6446 2.35189C13.3782 2.11735 12.964 1.88333 12.4091 1.67671C11.3032 1.26486 9.74181 1 7.99262 1C6.24344 1 4.68207 1.26486 3.57611 1.67671C3.02124 1.88333 2.60707 2.11735 2.34068 2.35189Z"
    />
    <path
      d="M13.9853 4.52096C13.645 4.76735 13.2328 4.98541 12.7729 5.17273C11.5271 5.68014 9.83769 6 7.99262 6C6.14756 6 4.45815 5.68014 3.21238 5.17273C2.7525 4.98542 2.34029 4.76737 2 4.52098V6.38676C2 6.52505 2.07356 6.71758 2.34073 6.9528C2.60712 7.18733 3.02129 7.42136 3.57616 7.62798C4.68212 8.03982 6.24349 8.30469 7.99267 8.30469C8.09757 8.30469 8.20179 8.30374 8.30528 8.30186C8.72968 7.5261 9.5534 7 10.5 7H13.0831C13.2334 7 13.3819 7.01689 13.5262 7.0496C13.5684 7.01739 13.6079 6.9851 13.6446 6.9528C13.9115 6.71779 13.9852 6.52539 13.9853 6.38713L13.9853 4.52096Z"
    />
    <path
      d="M8.00752 9.30468L7.99267 9.30469C6.15583 9.30469 4.47065 9.02828 3.22658 8.56501C2.76218 8.39207 2.34456 8.18769 2 7.95148L2.0001 9.8477C2.0001 9.98599 2.07362 10.1785 2.34078 10.4137C2.60717 10.6483 3.02134 10.8823 3.57621 11.0889C4.36257 11.3817 5.37916 11.6003 6.52979 11.7021C6.63479 11.1833 7.00941 10.7491 7.52566 10.577L8 10.4189V9.5C8 9.43427 8.00254 9.36913 8.00752 9.30468Z"
    />
    <path
      d="M3.22663 12.0259C4.16797 12.3765 5.36184 12.62 6.68287 12.7178C6.86047 13.0435 7.15694 13.3001 7.52566 13.423L8 13.5811V14.5C8 14.6681 8.01659 14.8323 8.04822 14.9911L7.99262 14.9912C6.24344 14.9912 4.68207 14.7263 3.57611 14.3145C3.02124 14.1078 2.60707 13.8738 2.34068 13.6393C2.07351 13.4041 2 13.2115 2 13.0732V11.4124C2.34457 11.6486 2.76221 11.853 3.22663 12.0259Z"
    />
    <path
      d="M11 15.5C11 15.7761 10.7761 16 10.5 16C9.67157 16 9 15.3284 9 14.5V12.8604L7.84189 12.4743C7.63772 12.4063 7.5 12.2152 7.5 12C7.5 11.7848 7.63772 11.5937 7.84189 11.5257L9 11.1396V9.5C9 8.67157 9.67157 8 10.5 8C10.7761 8 11 8.22386 11 8.5C11 8.77614 10.7761 9 10.5 9C10.2239 9 10 9.22386 10 9.5V11.1396C10 11.4979 9.8092 11.8227 9.50978 12C9.8092 12.1773 10 12.5021 10 12.8604V14.5C10 14.7761 10.2239 15 10.5 15C10.7761 15 11 15.2239 11 15.5Z"
    />
    <path
      d="M12 8.5C12 8.22386 12.2239 8 12.5 8C13.3284 8 14 8.67157 14 9.5V11.1396L15.1581 11.5257C15.3623 11.5937 15.5 11.7848 15.5 12C15.5 12.2152 15.3623 12.4063 15.1581 12.4743L14 12.8604V14.5C14 15.3284 13.3284 16 12.5 16C12.2239 16 12 15.7761 12 15.5C12 15.2239 12.2239 15 12.5 15C12.7761 15 13 14.7761 13 14.5V12.8604C13 12.5021 13.1908 12.1773 13.4902 12C13.1908 11.8227 13 11.4979 13 11.1396V9.5C13 9.22386 12.7761 9 12.5 9C12.2239 9 12 8.77614 12 8.5Z"
    />
  </g>
</svg>

<svg xmlns="http://www.w3.org/2000/svg" width="16" height="16" fill="none" data-big="true"><g fill="#548AF7"><path d="M2.34 2.352c-.266.235-.34.428-.34.566 0 .143.078.348.35.6.27.25.687.503 1.24.729C4.695 4.697 6.252 5 7.993 5s3.298-.303 4.402-.753c.554-.226.97-.479 1.24-.729.272-.252.35-.457.35-.6 0-.138-.073-.33-.34-.566s-.681-.469-1.236-.675C11.303 1.265 9.742 1 7.993 1s-3.31.265-4.417.677c-.555.206-.969.44-1.235.675"/><path d="M13.985 4.521c-.34.246-.752.464-1.212.652C11.527 5.68 9.838 6 7.993 6s-3.535-.32-4.78-.827A5.8 5.8 0 0 1 2 4.52v1.866c0 .138.074.33.34.566.267.234.681.468 1.236.675 1.106.412 2.667.677 4.417.677q.157 0 .312-.003A2.5 2.5 0 0 1 10.5 7h2.583q.226 0 .443.05.063-.05.119-.097c.267-.235.34-.428.34-.566zM8.008 9.305h-.015c-1.837 0-3.522-.277-4.766-.74A5.7 5.7 0 0 1 2 7.951v1.897c0 .138.074.33.34.566.267.234.681.468 1.236.675.787.293 1.803.511 2.954.613a1.5 1.5 0 0 1 .996-1.125L8 10.419V9.5q0-.098.008-.195M3.227 12.026c.941.35 2.135.594 3.456.692.177.325.474.582.843.705l.474.158v.919q0 .252.048.491h-.055c-1.75 0-3.31-.265-4.417-.676-.555-.207-.969-.441-1.235-.676S2 13.211 2 13.073v-1.66c.345.236.762.44 1.227.613M11 15.5a.5.5 0 0 1-.5.5A1.5 1.5 0 0 1 9 14.5v-1.64l-1.158-.386a.5.5 0 0 1 0-.948L9 11.14V9.5A1.5 1.5 0 0 1 10.5 8a.5.5 0 0 1 0 1 .5.5 0 0 0-.5.5v1.64a1 1 0 0 1-.49.86 1 1 0 0 1 .49.86v1.64a.5.5 0 0 0 .5.5.5.5 0 0 1 .5.5M12 8.5a.5.5 0 0 1 .5-.5A1.5 1.5 0 0 1 14 9.5v1.64l1.158.386a.5.5 0 0 1 0 .948L14 12.86v1.64a1.5 1.5 0 0 1-1.5 1.5.5.5 0 0 1 0-1 .5.5 0 0 0 .5-.5v-1.64a1 1 0 0 1 .49-.86 1 1 0 0 1-.49-.86V9.5a.5.5 0 0 0-.5-.5.5.5 0 0 1-.5-.5"/></g></svg>
